icons/svg/landuse/hills.svg

<?xml version="1.0" encoding="UTF-8" standalone="no"?>
<!-- Created with Inkscape (http://www.inkscape.org/) -->

<svg
   xmlns:dc="http://purl.org/dc/elements/1.1/"
   xmlns:cc="http://creativecommons.org/ns#"
   xmlns:rdf="http://www.w3.org/1999/02/22-rdf-syntax-ns#"
   xmlns:svg="http://www.w3.org/2000/svg"
   xmlns="http://www.w3.org/2000/svg"
   xmlns:sodipodi="http://sodipodi.sourceforge.net/DTD/sodipodi-0.dtd"
   xmlns:inkscape="http://www.inkscape.org/namespaces/inkscape"
   version="1.0"
   width="580"
   height="580"
   id="svg2"
   sodipodi:version="0.32"
   inkscape:version="0.47 r22583"
   sodipodi:docname="landuse_hills.svg"
   inkscape:output_extension="org.inkscape.output.svg.inkscape">
  <metadata
     id="metadata10">
    <rdf:RDF>
      <cc:Work
         rdf:about="">
        <dc:format>image/svg+xml</dc:format>
        <dc:type
           rdf:resource="http://purl.org/dc/dcmitype/StillImage" />
        <cc:license
           rdf:resource="http://web.resource.org/cc/PublicDomain" />
        <dc:language>en</dc:language>
        <dc:title />
      </cc:Work>
    </rdf:RDF>
  </metadata>
  <sodipodi:namedview
     inkscape:window-height="1003"
     inkscape:window-width="1400"
     inkscape:pageshadow="2"
     inkscape:pageopacity="0.0"
     guidetolerance="10.0"
     gridtolerance="10.0"
     objecttolerance="10.0"
     borderopacity="1.0"
     bordercolor="#666666"
     pagecolor="#ffffff"
     id="base"
     showgrid="false"
     inkscape:zoom="0.70710678"
     inkscape:cx="584.12743"
     inkscape:cy="24.040265"
     inkscape:window-x="0"
     inkscape:window-y="20"
     inkscape:current-layer="svg2"
     showguides="true"
     inkscape:guide-bbox="true"
     inkscape:window-maximized="0" />
  <defs
     id="defs4">
    <inkscape:perspective
       sodipodi:type="inkscape:persp3d"
       inkscape:vp_x="0 : 290 : 1"
       inkscape:vp_y="0 : 1000 : 0"
       inkscape:vp_z="580 : 290 : 1"
       inkscape:persp3d-origin="290 : 193.33333 : 1"
       id="perspective12" />
    <style
       type="text/css"
       id="style6">
   
    .fil0 {fill:#EF7900}
   
  </style>
    <inkscape:perspective
       id="perspective6807"
       inkscape:persp3d-origin="29.116032 : 19.410688 : 1"
       inkscape:vp_z="58.232063 : 29.116032 : 1"
       inkscape:vp_y="0 : 1000 : 0"
       inkscape:vp_x="0 : 29.116032 : 1"
       sodipodi:type="inkscape:persp3d" />
    <inkscape:perspective
       id="perspective6954"
       inkscape:persp3d-origin="290 : 193.33333 : 1"
       inkscape:vp_z="580 : 290 : 1"
       inkscape:vp_y="0 : 1000 : 0"
       inkscape:vp_x="0 : 290 : 1"
       sodipodi:type="inkscape:persp3d" />
    <inkscape:perspective
       id="perspective2541"
       inkscape:persp3d-origin="240 : 160 : 1"
       inkscape:vp_z="480 : 240 : 1"
       inkscape:vp_y="0 : 1000 : 0"
       inkscape:vp_x="0 : 240 : 1"
       sodipodi:type="inkscape:persp3d" />
    <inkscape:perspective
       id="perspective2750"
       inkscape:persp3d-origin="215 : 143.33333 : 1"
       inkscape:vp_z="430 : 215 : 1"
       inkscape:vp_y="0 : 1000 : 0"
       inkscape:vp_x="0 : 215 : 1"
       sodipodi:type="inkscape:persp3d" />
    <inkscape:perspective
       id="perspective2830"
       inkscape:persp3d-origin="0.5 : 0.33333333 : 1"
       inkscape:vp_z="1 : 0.5 : 1"
       inkscape:vp_y="0 : 1000 : 0"
       inkscape:vp_x="0 : 0.5 : 1"
       sodipodi:type="inkscape:persp3d" />
    <inkscape:perspective
       id="perspective3648"
       inkscape:persp3d-origin="0.5 : 0.33333333 : 1"
       inkscape:vp_z="1 : 0.5 : 1"
       inkscape:vp_y="0 : 1000 : 0"
       inkscape:vp_x="0 : 0.5 : 1"
       sodipodi:type="inkscape:persp3d" />
  </defs>
  <g
     id="g1327">
    <path
       d="M 66.275,1.768 C 24.94,1.768 1.704,23.139 1.704,66.804 L 1.704,516.927 C 1.704,557.771 22.598,579.156 63.896,579.156 L 515.92,579.156 C 557.227,579.156 578.149,558.84 578.149,516.927 L 578.149,66.804 C 578.149,24.203 557.227,1.768 514.627,1.768 C 514.624,1.768 66.133,1.625 66.275,1.768 z"
       style="fill:#111111;stroke:#eeeeee;stroke-width:3.40799999"
       id="path1329" />
  </g>
  <path
     style="fill:#ffffff;fill-opacity:1"
     d="m 362.98225,178.74951 c -18.3712,0.59518 -37.24028,3.30167 -53.875,11.21875 -11.25487,7.22101 -22.36174,14.50288 -33.40625,22.03125 -1.46855,1.05996 -6.63905,5.09345 -2.09375,3.0625 23.14953,-7.60492 43.81095,-22.25924 68.19266,-26.47693 20.60973,-5.15501 44.5539,-7.48552 63.05734,4.88318 12.34319,7.70967 22.99577,18.05648 36.3125,24.25 14.27752,7.77103 24.71792,24.76074 41.09375,26.75 -16.38702,-23.13213 -44.74653,-33.04697 -64.59013,-52.78497 -14.71539,-13.83429 -35.8556,-12.62913 -54.69112,-12.93378 z"
     id="path3656" />
  <path
     style="fill:#ffffff;fill-opacity:1"
     d="m 196.70535,94.254447 c -39.22077,-0.83704 -81.18443,5.73512 -111.323742,32.742223 -17.84714,15.20614 -33.7635,33.63041 -55.27001,43.75778 -2.650844,3.00967 2.800086,3.75932 4.90625,3 9.019234,-2.2793 15.95483,-9.35158 24.07693,-13.84356 15.98596,-10.61568 29.67645,-23.9299 42.574182,-37.94328 13.17695,-9.53662 29.87141,-12.00889 45.2614,-16.37281 24.51897,-5.32234 49.90938,-8.779243 74.99374,-6.652853 17.9245,4.576333 29.12992,21.095083 44.84375,29.968753 15.17614,9.89258 31.52486,18.7369 45.25,30.25 1.11555,-1.9244 -0.91505,-5.53366 -1.15625,-7.84375 -3.15304,-7.06153 -11.43345,-9.86687 -17.1875,-14.53125 -15.56308,-9.47906 -31.54849,-18.77017 -44.28125,-31.8125 -7.39152,-7.118783 -17.21364,-11.069463 -27.5,-10.468753 -8.38657,-0.4434 -16.79286,-0.33168 -25.1875,-0.25 z"
     id="path3658" />
  <path
     style="fill:#ffffff;fill-opacity:1"
     d="m 230.65504,246.00676 c -31.62382,2.61225 -64.4086,9.42287 -89.71169,29.65518 -17.03503,12.8395 -31.04208,29.79465 -50.069559,39.68857 -1.92089,2.78152 2.84221,7.28577 4.9375,3.78125 24.244999,-13.1651 41.551299,-35.81632 64.843749,-50.21875 22.74862,-11.9244 48.95265,-14.49799 74.09375,-17.625 17.57282,-0.89735 36.19959,4.8049 47.5625,18.71875 15.26441,12.85776 34.81496,19.83178 48.8125,34.1875 6.33889,5.2207 11.49959,13.49618 19.4375,15.4375 -0.53075,-5.86255 -6.28126,-9.81487 -9.53125,-14.34375 -14.02641,-15.2832 -32.85089,-24.47094 -49.75,-35.9375 -9.35849,-7.95098 -17.80511,-19.73683 -31.38058,-19.94438 -9.72254,-1.54075 -19.3656,-3.61775 -29.24442,-3.39937 z"
     id="path3660" />
</svg>

<svg width="580" height="580" viewBox="0 0 580 580" fill="none" xmlns="http://www.w3.org/2000/svg">
<g clip-path="url(#clip0)">
<path d="M66.2751 1.76802C24.9401 1.76802 1.7041 23.139 1.7041 66.804V516.927C1.7041 557.771 22.5981 579.156 63.8961 579.156H515.92C557.227 579.156 578.149 558.84 578.149 516.927V66.804C578.149 24.203 557.227 1.76802 514.627 1.76802C514.624 1.76802 66.1331 1.62502 66.2751 1.76802Z" fill="#111111" stroke="#EEEEEE" stroke-width="3.408"/>
<path d="M362.982 178.75C344.611 179.345 325.742 182.051 309.107 189.968C297.852 197.189 286.745 204.471 275.701 212C274.232 213.059 269.062 217.093 273.607 215.062C296.757 207.457 317.418 192.803 341.8 188.585C362.41 183.43 386.354 181.1 404.857 193.468C417.2 201.178 427.853 211.525 441.17 217.718C455.447 225.489 465.888 242.479 482.263 244.468C465.876 221.336 437.517 211.421 417.673 191.683C402.958 177.849 381.818 179.054 362.982 178.75Z" fill="white"/>
<path d="M196.705 94.2545C157.484 93.4174 115.521 99.9896 85.3815 126.997C67.5344 142.203 51.618 160.627 30.1115 170.754C27.4607 173.764 32.9116 174.514 35.0178 173.754C44.037 171.475 50.9726 164.403 59.0947 159.911C75.0807 149.295 88.7711 135.981 101.669 121.968C114.846 112.431 131.54 109.959 146.93 105.595C171.449 100.272 196.84 96.8156 221.924 98.942C239.849 103.518 251.054 120.037 266.768 128.911C281.944 138.803 298.293 147.648 312.018 159.161C313.133 157.236 311.103 153.627 310.862 151.317C307.708 144.255 299.428 141.45 293.674 136.786C278.111 127.307 262.126 118.016 249.393 104.973C242.001 97.8544 232.179 93.9038 221.893 94.5045C213.506 94.0611 205.1 94.1728 196.705 94.2545V94.2545Z" fill="white"/>
<path d="M230.655 246.007C199.031 248.619 166.246 255.43 140.943 275.662C123.908 288.501 109.901 305.457 90.8738 315.351C88.9529 318.132 93.716 322.636 95.8113 319.132C120.056 305.967 137.363 283.315 160.655 268.913C183.404 256.989 209.608 254.415 234.749 251.288C252.322 250.391 270.948 256.093 282.311 270.007C297.576 282.865 317.126 289.839 331.124 304.194C337.463 309.415 342.623 317.69 350.561 319.632C350.031 313.769 344.28 309.817 341.03 305.288C327.004 290.005 308.179 280.817 291.28 269.351C281.922 261.4 273.475 249.614 259.9 249.406C250.177 247.865 240.534 245.788 230.655 246.007V246.007Z" fill="white"/>
</g>
<defs>
<clipPath id="clip0">
<path d="M0 0H580V580H0V0Z" fill="white"/>
</clipPath>
</defs>
</svg>
